packages/core/src/svgs/tokens/mono/PLR.svg

<svg width="24" height="24" viewBox="0 0 24 24" fill="none" xmlns="http://www.w3.org/2000/svg">
<path d="M18.8749 5.74997L15.125 2V14.5H5.125V18.2499L8.87499 22V18.2499H18.8749V5.74997ZM10.125 4.49998H5.125V9.49994H10.125V4.49998Z" fill="white"/>
</svg>

<svg xmlns="http://www.w3.org/2000/svg" width="24" height="24" fill="none" viewBox="0 0 24 24">
    <path fill="#fff" d="M18.875 5.75 15.125 2v12.5h-10v3.75L8.875 22v-3.75h10zm-8.75-1.25h-5v5h5z"/>
</svg>
